imgs/font_02/gt/02_26.svg

<svg xmlns="http://www.w3.org/2000/svg" xmlns:xlink="http://www.w3.org/1999/xlink" width="50px" height="50px" viewBox="0 0 24 24">
<style type="text/css">
.path {
		stroke-dasharray: 100;
		animation: dash 30s linear infinite;
}
@keyframes dash {
	to {
		stroke-dashoffset: 1000;
	}
}
</style>
<path class="path" d="m 12.123046875 10.256510734558105 c 2.1015625 0.0 3.477093368264006 0.5192001446391536 4.125 1.55859375 c 0.25802398165550455 0.41393074777447963 0.38621425034271795 1.0671185373493568 0.43359375 1.95703125 c 0.005829772205650003 0.10949858979500508 0.01171875 0.40234375 0.01171875 0.87890625 l 0.0 4.96875 c -0.007812500931322575 1.5156251192092896 0.12109375 2.53125 0.38671875 3.046875 l -3.85546875 0.0 c -0.1171874925494194 -0.5234375 -0.18359375 -0.9921875 -0.19921875 -1.40625 c -0.5546875 1.140625 -1.55078125 1.7109375 -2.98828125 1.7109375 c -2.1015625 0.0 -3.15234375 -1.19921875 -3.15234375 -3.597656011581421 c 0.0 -1.453125 0.3823579002039148 -2.4669830603009935 1.16015625 -3.0234375 c 0.4195482253363492 -0.30015424012850456 1.0627382328967663 -0.5435533520282085 1.91015625 -0.7851563096046448 c 0.18062751595268986 -0.05149777464377249 0.7783012403940255 -0.19106219277028913 1.79296875 -0.421875 c 0.5395811342659868 -0.12274191806583934 0.891489862887676 -0.3197802613068621 1.0546875 -0.5859375596046448 c 0.10995888847939707 -0.17933078688732038 0.1640625 -0.4296875298023224 0.1640625 -0.7500000596046448 c 0.0 -0.734375 -0.34375 -1.1015625 -1.03125 -1.1015625 c -0.7578125596046448 0.0 -1.13671875 0.53125 -1.13671875 1.59375 l -3.55078125 0.0 c 0.015625 -1.2734375 0.3204504470214502 -2.2186173211504485 0.9140625 -2.8359375 c 0.773617316330263 -0.8045146281681035 2.09375 -1.2070313096046448 3.9609375 -1.2070313096046448 m 0.8671875 6.480468809604645 c -0.1640625 0.15625 -0.5683191740000946 0.34231825193425447 -1.20703125 0.57421875 c -0.3996622782729158 0.14510745118524285 -0.6568125515152314 0.33397613668241455 -0.7851563096046448 0.55078125 c -0.1447017418094504 0.2444378908430752 -0.22265625 0.578125 -0.22265625 1.0078125 c 0.0 0.9218749403953552 0.33203125 1.3828125 0.99609375 1.3828125 c 0.5546875 0.0 0.9166369358417171 -0.27658878528658626 1.078125 -0.8320313096046448 c 0.06351390221419809 -0.21845776874610176 0.09375 -0.56640625 0.09375 -1.04296875 l 0.0 -0.6562500596046448 c 0.0 -0.453125 0.015625059604644775 -0.7812498211860657 0.046875059604644775 -0.9843748807907104" fill="none" stroke="black" stroke-width="0.3">
</path>
</svg>

<svg xmlns="http://www.w3.org/2000/svg" xmlns:xlink="http://www.w3.org/1999/xlink" width="50px" height="50px" viewBox="0 0 24 24">
<style type="text/css">
.pen {
	stroke-dashoffset: 0;
	animation-duration: 5s;
	animation-iteration-count: 1000;
	animation-timing-function: ease;
}
.path00 {
		stroke-dasharray: 9;
		animation-name: dash00 
}
@keyframes dash00 {
	0% {
		stroke-dashoffset: 9;
	}
	7% {
		stroke-dashoffset: 0;
	}
}
.path01 {
		stroke-dasharray: 4;
		animation-name: dash01 
}
@keyframes dash01 {
	0%, 7% {
		stroke-dashoffset: 4;
	}
	10% {
		stroke-dashoffset: 0;
	}
}
.path02 {
		stroke-dasharray: 1;
		animation-name: dash02 
}
@keyframes dash02 {
	0%, 10% {
		stroke-dashoffset: 1;
	}
	11% {
		stroke-dashoffset: 0;
	}
}
.path03 {
		stroke-dasharray: 9;
		animation-name: dash03 
}
@keyframes dash03 {
	0%, 11% {
		stroke-dashoffset: 9;
	}
	19% {
		stroke-dashoffset: 0;
	}
}
.path04 {
		stroke-dasharray: 6;
		animation-name: dash04 
}
@keyframes dash04 {
	0%, 19% {
		stroke-dashoffset: 6;
	}
	24% {
		stroke-dashoffset: 0;
	}
}
.path05 {
		stroke-dasharray: 7;
		animation-name: dash05 
}
@keyframes dash05 {
	0%, 24% {
		stroke-dashoffset: 7;
	}
	30% {
		stroke-dashoffset: 0;
	}
}
.path06 {
		stroke-dasharray: 2;
		animation-name: dash06 
}
@keyframes dash06 {
	0%, 30% {
		stroke-dashoffset: 2;
	}
	32% {
		stroke-dashoffset: 0;
	}
}
.path07 {
		stroke-dasharray: 7;
		animation-name: dash07 
}
@keyframes dash07 {
	0%, 32% {
		stroke-dashoffset: 7;
	}
	38% {
		stroke-dashoffset: 0;
	}
}
.path08 {
		stroke-dasharray: 10;
		animation-name: dash08 
}
@keyframes dash08 {
	0%, 38% {
		stroke-dashoffset: 10;
	}
	47% {
		stroke-dashoffset: 0;
	}
}
.path09 {
		stroke-dasharray: 6;
		animation-name: dash09 
}
@keyframes dash09 {
	0%, 47% {
		stroke-dashoffset: 6;
	}
	52% {
		stroke-dashoffset: 0;
	}
}
.path10 {
		stroke-dasharray: 4;
		animation-name: dash10 
}
@keyframes dash10 {
	0%, 52% {
		stroke-dashoffset: 4;
	}
	55% {
		stroke-dashoffset: 0;
	}
}
.path11 {
		stroke-dasharray: 3;
		animation-name: dash11 
}
@keyframes dash11 {
	0%, 55% {
		stroke-dashoffset: 3;
	}
	58% {
		stroke-dashoffset: 0;
	}
}
.path12 {
		stroke-dasharray: 2;
		animation-name: dash12 
}
@keyframes dash12 {
	0%, 58% {
		stroke-dashoffset: 2;
	}
	60% {
		stroke-dashoffset: 0;
	}
}
.path13 {
		stroke-dasharray: 1;
		animation-name: dash13 
}
@keyframes dash13 {
	0%, 60% {
		stroke-dashoffset: 1;
	}
	61% {
		stroke-dashoffset: 0;
	}
}
.path14 {
		stroke-dasharray: 3;
		animation-name: dash14 
}
@keyframes dash14 {
	0%, 61% {
		stroke-dashoffset: 3;
	}
	64% {
		stroke-dashoffset: 0;
	}
}
.path15 {
		stroke-dasharray: 4;
		animation-name: dash15 
}
@keyframes dash15 {
	0%, 64% {
		stroke-dashoffset: 4;
	}
	68% {
		stroke-dashoffset: 0;
	}
}
.path16 {
		stroke-dasharray: 7;
		animation-name: dash16 
}
@keyframes dash16 {
	0%, 68% {
		stroke-dashoffset: 7;
	}
	73% {
		stroke-dashoffset: 0;
	}
}
.path17 {
		stroke-dasharray: 6;
		animation-name: dash17 
}
@keyframes dash17 {
	0%, 73% {
		stroke-dashoffset: 6;
	}
	78% {
		stroke-dashoffset: 0;
	}
}
.path18 {
		stroke-dasharray: 8;
		animation-name: dash18 
}
@keyframes dash18 {
	0%, 78% {
		stroke-dashoffset: 8;
	}
	85% {
		stroke-dashoffset: 0;
	}
}
.path19 {
		stroke-dasharray: 2;
		animation-name: dash19 
}
@keyframes dash19 {
	0%, 85% {
		stroke-dashoffset: 2;
	}
	87% {
		stroke-dashoffset: 0;
	}
}
.path20 {
		stroke-dasharray: 1;
		animation-name: dash20 
}
@keyframes dash20 {
	0%, 87% {
		stroke-dashoffset: 1;
	}
	88% {
		stroke-dashoffset: 0;
	}
}
.path21 {
		stroke-dasharray: 2;
		animation-name: dash21 
}
@keyframes dash21 {
	0%, 88% {
		stroke-dashoffset: 2;
	}
	90% {
		stroke-dashoffset: 0;
	}
}
.path22 {
		stroke-dasharray: 3;
		animation-name: dash22 
}
@keyframes dash22 {
	0%, 90% {
		stroke-dashoffset: 3;
	}
	93% {
		stroke-dashoffset: 0;
	}
}
.path23 {
		stroke-dasharray: 2;
		animation-name: dash23 
}
@keyframes dash23 {
	0%, 93% {
		stroke-dashoffset: 2;
	}
	95% {
		stroke-dashoffset: 0;
	}
}
.path24 {
		stroke-dasharray: 2;
		animation-name: dash24 
}
@keyframes dash24 {
	0%, 95% {
		stroke-dashoffset: 2;
	}
	97% {
		stroke-dashoffset: 0;
	}
}
.path25 {
		stroke-dasharray: 1;
		animation-name: dash25 
}
@keyframes dash25 {
	0%, 97% {
		stroke-dashoffset: 1;
	}
	98% {
		stroke-dashoffset: 0;
	}
}
.path26 {
		stroke-dasharray: 1;
		animation-name: dash26 
}
@keyframes dash26 {
	0%, 98% {
		stroke-dashoffset: 1;
	}
	100% {
		stroke-dashoffset: 0;
	}
}
</style>
<path class="pen path00" d="M 12.123046875 10.256510734558105 C 14.224609375 10.256510734558105 15.600140243264006 10.77571087919726 16.248046875 11.815104484558105 " fill="none" stroke="black" stroke-width="0.3"></path>
<path class="pen path01" d="M 16.248046875 11.815104484558105 C 16.506070856655505 12.229035232332585 16.634261125342718 12.882223021907462 16.681640625 13.772135734558105 " fill="none" stroke="black" stroke-width="0.3"></path>
<path class="pen path02" d="M 16.681640625 13.772135734558105 C 16.68747039720565 13.88163432435311 16.693359375 14.174479484558105 16.693359375 14.651041984558105 " fill="none" stroke="black" stroke-width="0.3"></path>
<path class="pen path03" d="M 16.693359375 14.651041984558105 L 16.693359375 19.619791984558105 " fill="none" stroke="black" stroke-width="0.3"></path>
<path class="pen path04" d="M 16.693359375 19.619791984558105 C 16.685546874068677 21.135417103767395 16.814453125 22.151041984558105 17.080078125 22.666666984558105 " fill="none" stroke="black" stroke-width="0.3"></path>
<path class="pen path05" d="M 17.080078125 22.666666984558105 L 13.224609375 22.666666984558105 " fill="none" stroke="black" stroke-width="0.3"></path>
<path class="pen path06" d="M 13.224609375 22.666666984558105 C 13.10742188245058 22.143229484558105 13.041015625 21.674479484558105 13.025390625 21.260416984558105 " fill="none" stroke="black" stroke-width="0.3"></path>
<path class="pen path07" d="M 13.025390625 21.260416984558105 C 12.470703125 22.401041984558105 11.474609375 22.971354484558105 10.037109375 22.971354484558105 " fill="none" stroke="black" stroke-width="0.3"></path>
<path class="pen path08" d="M 10.037109375 22.971354484558105 C 7.935546875 22.971354484558105 6.884765625 21.772135734558105 6.884765625 19.373698472976685 " fill="none" stroke="black" stroke-width="0.3"></path>
<path class="pen path09" d="M 6.884765625 19.373698472976685 C 6.884765625 17.920573472976685 7.267123525203915 16.90671541267569 8.044921875 16.350260972976685 " fill="none" stroke="black" stroke-width="0.3"></path>
<path class="pen path10" d="M 8.044921875 16.350260972976685 C 8.46447010033635 16.05010673284818 9.107660107896766 15.806707620948476 9.955078125 15.56510466337204 " fill="none" stroke="black" stroke-width="0.3"></path>
<path class="pen path11" d="M 9.955078125 15.56510466337204 C 10.13570564095269 15.513606888728267 10.733379365394025 15.37404247060175 11.748046875 15.14322966337204 " fill="none" stroke="black" stroke-width="0.3"></path>
<path class="pen path12" d="M 11.748046875 15.14322966337204 C 12.287628009265987 15.0204877453062 12.639536737887676 14.823449402065178 12.802734375 14.557292103767395 " fill="none" stroke="black" stroke-width="0.3"></path>
<path class="pen path13" d="M 12.802734375 14.557292103767395 C 12.912693263479397 14.377961316880075 12.966796875 14.127604573965073 12.966796875 13.80729204416275 " fill="none" stroke="black" stroke-width="0.3"></path>
<path class="pen path14" d="M 12.966796875 13.80729204416275 C 12.966796875 13.07291704416275 12.623046875 12.70572954416275 11.935546875 12.70572954416275 " fill="none" stroke="black" stroke-width="0.3"></path>
<path class="pen path15" d="M 11.935546875 12.70572954416275 C 11.177734315395355 12.70572954416275 10.798828125 13.23697954416275 10.798828125 14.29947954416275 " fill="none" stroke="black" stroke-width="0.3"></path>
<path class="pen path16" d="M 10.798828125 14.29947954416275 L 7.248046875 14.29947954416275 " fill="none" stroke="black" stroke-width="0.3"></path>
<path class="pen path17" d="M 7.248046875 14.29947954416275 C 7.263671875 13.02604204416275 7.56849732202145 12.080862223012302 8.162109375 11.46354204416275 " fill="none" stroke="black" stroke-width="0.3"></path>
<path class="pen path18" d="M 8.162109375 11.46354204416275 C 8.935726691330263 10.659027415994647 10.255859375 10.256510734558105 12.123046875 10.256510734558105 " fill="none" stroke="black" stroke-width="0.3"></path>
<path class="pen path19" d="M 12.990234375 16.73697954416275 C 12.826171875 16.89322954416275 12.421915200999905 17.079297796097006 11.783203125 17.31119829416275 " fill="none" stroke="black" stroke-width="0.3"></path>
<path class="pen path20" d="M 11.783203125 17.31119829416275 C 11.383540846727085 17.456305745347994 11.126390573484768 17.645174430845167 10.998046815395355 17.86197954416275 " fill="none" stroke="black" stroke-width="0.3"></path>
<path class="pen path21" d="M 10.998046815395355 17.86197954416275 C 10.853345073585905 18.106417435005824 10.775390565395355 18.44010454416275 10.775390565395355 18.86979204416275 " fill="none" stroke="black" stroke-width="0.3"></path>
<path class="pen path22" d="M 10.775390565395355 18.86979204416275 C 10.775390565395355 19.791666984558105 11.107421815395355 20.25260454416275 11.771484315395355 20.25260454416275 " fill="none" stroke="black" stroke-width="0.3"></path>
<path class="pen path23" d="M 11.771484315395355 20.25260454416275 C 12.326171815395355 20.25260454416275 12.688121251237073 19.976015758876166 12.849609315395355 19.420573234558105 " fill="none" stroke="black" stroke-width="0.3"></path>
<path class="pen path24" d="M 12.849609315395355 19.420573234558105 C 12.913123217609554 19.202115465812003 12.943359315395355 18.854166984558105 12.943359315395355 18.377604484558105 " fill="none" stroke="black" stroke-width="0.3"></path>
<path class="pen path25" d="M 12.943359315395355 18.377604484558105 L 12.943359315395355 17.72135442495346 " fill="none" stroke="black" stroke-width="0.3"></path>
<path class="pen path26" d="M 12.943359315395355 17.72135442495346 C 12.943359315395355 17.26822942495346 12.958984375 16.940104603767395 12.990234375 16.73697954416275 " fill="none" stroke="black" stroke-width="0.3"></path>
</svg>
